Suru++-Ubuntu/apps/symbolic/code-symbolic.svg

<svg width="16" height="16" version="1.1" xmlns="http://www.w3.org/2000/svg">
 <path d="m11.748845 0.5v12.88295l-11.248845-1.670722 11.248845 3.787772 3.750028-1.559955v-11.647513l0.0012-5.625e-4 -0.0012-0.00281v-0.2294198z" style="fill:#808080"/>
 <path d="m7.8123297 2.694807-3.4454508 3.4057849-2.0743468-1.5622148-0.8549117 0.2855365 2.1104043 2.0861785-2.1104043 2.0860656 0.8549117 0.2856493 2.0743468-1.5623276h1.125e-4l3.4452258 3.4055596 2.0635291-0.876766v-6.6767zm-1.125e-4 2.4300744v3.569971l-2.3703609-1.7849853z" style="fill:#808080"/>
</svg>

<svg xmlns="http://www.w3.org/2000/svg" width="16" height="16" version="1.1">
 <path d="M 11.748845,0.5 V 13.38295 L 0.5,11.712228 11.748845,15.5 15.498873,13.940045 V 2.2925321 l 0.0012,-5.625e-4 -0.0012,-0.00281 V 2.0597398 Z" style="fill:#808080"/>
 <path d="M 7.8123297,2.694807 4.3668789,6.1005919 2.2925321,4.5383771 1.4376204,4.8239136 3.5480247,6.9100921 1.4376204,8.9961577 2.2925321,9.281807 4.3668789,7.7194794 h 1.125e-4 l 3.4452258,3.4055596 2.0635291,-0.876766 v -6.6767 z m -1.125e-4,2.4300744 v 3.569971 L 5.4418563,6.9098671 Z" style="fill:#808080"/>
</svg>
